images/fish-svg.svg

<svg width="21" height="22" fill="none" xmlns="http://www.w3.org/2000/svg"><path d="M6.70074 13.3186c-.30022.6154-.42781 1.1307-.43598 1.1644-.04438.1832.03504.3726.19402.4702.08702.0534 2.1511 1.2997 3.86492.5924.1371-.0566.2709-.1186.4009-.1854-1.46149-.3647-2.83121-1.1309-4.02386-2.0416zM6.73891 7.74815c.00332.00263.15169.12276.3482.31621 1.59666-1.13727 3.47139-1.98484 5.43239-1.98482.4327-.00008.8689.02594 1.307.0773-.2244-.4034-.5978-.8244-1.1983-1.22468-1.1781-.7854-2.69847-.18782-3.89318.56441-1.12835.71044-1.99507 1.57235-2.0314 1.60868-.18082.18082-.16633.4804.03529.6429zM5.51278 12.3129c-.1822-.171-.44375-.4273-.61085-.6141-.44119-.493-.44123-1.2365.00045-1.73003.11435-.12755.34305-.36281.61036-.61362-.46899-.35504-1.04487-.90154-1.58738-1.71537-.15106-.22645-.47218-.25897-.66528-.06587-.64498.64497-.9998 1.42239-.97352 2.13285.02772.74824.02774 1.50684.00002 2.25454-.0263.7105.32852 1.4879.9735 2.1328.19277.1928.5141.161.66526-.0659.54255-.8137 1.11845-1.3603 1.58744-1.7153z" fill="#78C0DE"/><path d="M15.3494 14.0807c-1.3082-1.5047-1.3109-4.97777-.0036-6.4894.0151-.01746.0057-.0073.2036-.20518-1.0167-.29333-2.0346-.44226-3.0298-.44208-2.2132-.00004-4.37718 1.25113-6.02864 2.6917-.41385.3612-.77344.71876-.94492.91006-.14687.1641-.14687.4124.00002.5765.36796.4114 1.13081 1.1168 1.95157 1.7122 1.25492.9093 2.70427 1.6427 4.23507 1.8382.0069-.0062.276.0449.8158.0511.982-.0028 1.9953-.1491 2.9825-.4334l-.1816-.2097z" fill="#78C0DE"/><path d="M19.8426 11.81c.2041-.2573.388-.589.412-.9196.0538-.7264-.754-1.47017-1.3408-1.90287-.729-.53763-1.6059-.9792-2.4467-1.29651l-.477.47702c-1.0161 1.19492-1.0085 4.17206.0121 5.34606l.4188.4832c1.164-.4336 2.6582-1.2121 3.4216-2.1873zm-3.1402-1.3395c-.0689-.219.0524-.4672.2877-.5387.2229-.07408.4942.0626.5493.3289.0221.1078.0012.2242-.0644.3244-.2114.3087-.6699.2259-.7726-.1146z" fill="#78C0DE"/></svg>

<svg width="21" height="22" viewBox="0 0 21 22" fill="none" xmlns="http://www.w3.org/2000/svg">
<path d="M6.70074 13.3186C6.40052 13.934 6.27293 14.4493 6.26476 14.483C6.22038 14.6662 6.2998 14.8556 6.45878 14.9532C6.5458 15.0066 8.60988 16.2529 10.3237 15.5456C10.4608 15.489 10.5946 15.427 10.7246 15.3602C9.26311 14.9955 7.89339 14.2293 6.70074 13.3186Z" fill="#78C0DE"/>
<path d="M6.73891 7.74815C6.74223 7.75078 6.8906 7.87091 7.08711 8.06436C8.68377 6.92709 10.5585 6.07952 12.5195 6.07954C12.9522 6.07946 13.3884 6.10548 13.8265 6.15684C13.6021 5.75344 13.2287 5.33244 12.6282 4.93216C11.4501 4.14676 9.92973 4.74434 8.73502 5.49657C7.60667 6.20701 6.73995 7.06892 6.70362 7.10525C6.5228 7.28607 6.53729 7.58565 6.73891 7.74815Z" fill="#78C0DE"/>
<path d="M5.51278 12.3129C5.33058 12.1419 5.06903 11.8856 4.90193 11.6988C4.46074 11.2058 4.4607 10.4623 4.90238 9.96877C5.01673 9.84122 5.24543 9.60596 5.51274 9.35515C5.04375 9.00011 4.46787 8.45361 3.92536 7.63978C3.7743 7.41333 3.45318 7.38081 3.26008 7.57391C2.6151 8.21888 2.26028 8.9963 2.28656 9.70676C2.31428 10.455 2.3143 11.2136 2.28658 11.9613C2.26028 12.6718 2.6151 13.4492 3.26008 14.0941C3.45285 14.2869 3.77418 14.2551 3.92534 14.0282C4.46789 13.2145 5.04379 12.6679 5.51278 12.3129Z" fill="#78C0DE"/>
<path d="M15.3494 14.0807C14.0412 12.576 14.0385 9.10293 15.3458 7.5913C15.3609 7.57384 15.3515 7.584 15.5494 7.38612C14.5327 7.09279 13.5148 6.94386 12.5196 6.94404C10.3064 6.944 8.14242 8.19517 6.49096 9.63574C6.07711 9.99694 5.71752 10.3545 5.54604 10.5458C5.39917 10.7099 5.39917 10.9582 5.54606 11.1223C5.91402 11.5337 6.67687 12.2391 7.49763 12.8345C8.75255 13.7438 10.2019 14.4772 11.7327 14.6727C11.7396 14.6665 12.0087 14.7176 12.5485 14.7238C13.5305 14.721 14.5438 14.5747 15.531 14.2904L15.3494 14.0807Z" fill="#78C0DE"/>
<path d="M19.8426 11.81C20.0467 11.5527 20.2306 11.221 20.2546 10.8904C20.3084 10.164 19.5006 9.42023 18.9138 8.98753C18.1848 8.4499 17.3079 8.00833 16.4671 7.69102L15.9901 8.16804C14.974 9.36296 14.9816 12.3401 16.0022 13.5141L16.421 13.9973C17.585 13.5637 19.0792 12.7852 19.8426 11.81ZM16.7024 10.4705C16.6335 10.2515 16.7548 10.0033 16.9901 9.9318C17.213 9.85772 17.4843 9.9944 17.5394 10.2607C17.5615 10.3685 17.5406 10.4849 17.475 10.5851C17.2636 10.8938 16.8051 10.811 16.7024 10.4705Z" fill="#78C0DE"/>
</svg>
